X:364
T:Jennys Baw Bee. RH.364
R:reel
S:Rev.R.Harrison’s MS,c1815,Cumbria
N:aka Polly Put the Kettle On.
O:England
A:Temple Sowerby,Cumbria
Z:vmp.Simon Wilson. Review PJH, 2008.
M:C|
L:1/8
Q:1/2=70
K:D
f/g/|abag fddf|BBed cAAf|\
abag fddf|B2c2 d2||!
fdge fddg|BBed cAAf|\
fdge fddg|B2c2 d2|]

